pk/flight-safety.svg

<svg viewBox="0 0 48 48" fill="none" xmlns="http://www.w3.org/2000/svg" height="1em" width="1em">
  <path d="M38.986 23C38.6727 33.709 33.1203 39.5222 25.002 43C20.6093 41.1187 16.9675 38.5534 14.5 34.899" stroke="black" stroke-width="4" stroke-linejoin="round"/>
  <path d="M39 19V10.2556L25.0067 5L11 10.2556V22.0285C11 24.6162 11.2942 26.9289 11.8477 29" stroke="black" stroke-width="4" stroke-linejoin="round"/>
  <path d="M9.26785 30.632C7.89464 29.3755 6.27838 26.7552 5.68058 26.6051C5.68058 26.6051 3.88327 31.0394 4.00049 34C4.11771 36.9606 6.89668 38.6351 9.82462 37.2204C12.7526 35.8057 44 20 44 20L35 18L9.26785 30.632Z" fill="#2F88FF" stroke="black" stroke-width="4" stroke-linecap="round" stroke-linejoin="round"/>
  <path d="M27.9998 21L18.9991 18L16.9992 19L19.9992 25" stroke="black" stroke-width="4" stroke-linecap="round" stroke-linejoin="round"/>
</svg>

<svg viewBox="0 0 48 48" fill="none" xmlns="http://www.w3.org/2000/svg" height="1em" width="1em">
  <path d="M38.986 23c-.313 10.709-5.866 16.522-13.984 20-4.393-1.881-8.034-4.447-10.502-8.101M39 19v-8.744L25.007 5 11 10.256v11.773c0 2.587.294 4.9.848 6.971" stroke="#000" stroke-width="4" stroke-linejoin="round"/>
  <path d="M9.268 30.632c-1.373-1.257-2.99-3.877-3.587-4.027 0 0-1.798 4.434-1.68 7.395.117 2.96 2.896 4.635 5.824 3.22C12.753 35.806 44 20 44 20l-9-2L9.268 30.632Z" fill="#2F88FF" stroke="#000" stroke-width="4" stroke-linecap="round" stroke-linejoin="round"/>
  <path d="m28 21-9-3-2 1 3 6" stroke="#000" stroke-width="4" stroke-linecap="round" stroke-linejoin="round"/>
</svg>
